client/src/assets/icons/search.svg

<svg width="25" height="25" viewBox="0 0 25 25" fill="none" xmlns="http://www.w3.org/2000/svg">
<path d="M16.1458 14.5833H15.3229L15.0313 14.3021C16.0874 13.0771 16.6678 11.5132 16.6667 9.89584C16.6667 8.55669 16.2696 7.24762 15.5256 6.13416C14.7816 5.02071 13.7241 4.15287 12.4869 3.6404C11.2497 3.12793 9.88832 2.99385 8.57491 3.2551C7.2615 3.51636 6.05505 4.16122 5.10813 5.10813C4.16122 6.05505 3.51636 7.2615 3.2551 8.57491C2.99385 9.88832 3.12793 11.2497 3.6404 12.4869C4.15287 13.7241 5.02071 14.7816 6.13416 15.5256C7.24762 16.2696 8.55669 16.6667 9.89584 16.6667C11.5729 16.6667 13.1146 16.0521 14.3021 15.0313L14.5833 15.3229V16.1458L19.7917 21.3438L21.3438 19.7917L16.1458 14.5833ZM9.89584 14.5833C7.30209 14.5833 5.20834 12.4896 5.20834 9.89584C5.20834 7.30209 7.30209 5.20834 9.89584 5.20834C12.4896 5.20834 14.5833 7.30209 14.5833 9.89584C14.5833 12.4896 12.4896 14.5833 9.89584 14.5833Z" fill="white"/>
</svg>

<svg xmlns="http://www.w3.org/2000/svg" width="25" height="25" fill="none" viewBox="0 0 25 25">
  <path fill="#fff" d="M16.146 14.583h-.823l-.292-.28a6.741 6.741 0 0 0 1.636-4.407 6.77 6.77 0 1 0-6.771 6.77 6.741 6.741 0 0 0 4.406-1.635l.281.292v.823l5.209 5.198 1.552-1.552-5.198-5.209Zm-6.25 0a4.681 4.681 0 0 1-4.688-4.687 4.681 4.681 0 0 1 4.688-4.688 4.681 4.681 0 0 1 4.687 4.688 4.681 4.681 0 0 1-4.687 4.687Z"/>
</svg>
